X:1
T:Trio Sonata g-moll, HWV 390 for 2 violins(or Flutes, Oboes) and continuo, Opus 2, Nr. 5
T:Trio Sonata g-moll, HWV 390 
T:for 2 violins(or Flutes, Oboes) and continuo, Opus 2, Nr. 5 Transcribed for Recorder, Traverso and B/C in c-moll from IMSLP#356377 PDF File
T:George Frideric Handel (1685 — 1759) Arr. by : Siegfried Flesch (1933-2007)
T:Public Domain - Non-PD US
T:Public Domain - Non-PD US
T:Public Domain - Non-PD US
T:Public Domain - Non-PD US
T:Public Domain - Non-PD US
T:Public Domain - Non-PD US
T:Public Domain - Non-PD US
T:Public Domain - Non-PD US
T:Public Domain - Non-PD US
T:Public Domain - Non-PD US
T:Public Domain - Non-PD US
T:Public Domain - Non-PD US
T:Public Domain - Non-PD US
T:Public Domain - Non-PD US
C:George Frideric Handel (1685 — 1759)
Z:Public Domain - Non-PD US
%%score [ 1 2 3 ] { ( 4 5 7 ) | 6 }
L:1/8
Q:1/4=56
M:4/4
K:Eb
V:1 treble nm="Alto Recorder" snm="A. Rec."
V:2 treble nm="Traverso" snm="Trv."
V:3 bass nm="Viola da gamba" snm="Vla. d. g."
V:4 treble nm="Harpsichord" snm="Hch."
V:5 treble 
V:7 treble 
V:6 bass 
V:1
"^1. Larghetto." c'3 (e/d/) d3 (f/e/) | e(g/f/) f(a/g/) gc c'2- | c'(=b/4c'/4d'/) Tb>c' c'e-ed- | %3
 dc/>=B/ cc' =bc'd'e' | =bg (f/4g/4a/)g z gag | z gc'_b ag fg/>e/ | %6
 f(b/>g/) f(g/>e/) f(b/>g/) (a/>f/)(g/>a/) | fB b2- b4- | b3 a- a/>f/g/>a/ gTf/>e/ | %9
 e2 z B/>d/ c/>e/d/>f/ e/>g/f/>a/ | g/>e/d/>f/ e/>g/f/>e/ d eeTd | %11
 eB B2- B/b/a/g/ a!tenuto!Tg/>f/ | f2 z/ b/=a/g/ ^fggTf | g(Te'/>d'/) d'2 z (Tc'/>b/) b2 | %14
 z (b/>=a/) (a/>g/)g/>^f/ fggTf | g(b/>g/) e2 z (a/>f/) d2 | z g c'2- c'=b/c'/ (Tc'3/2b/4c'/4) | %17
 d'g z G/>=B/ =A/>c/B/>d/ c/>e/d/>f/ | e/>d/e/>c/ g2- g4- | g3 f- f3/4 d/<e/f/4 eTd/>c/ | %20
 c(Ta/>g/) g2 z Ta/>g/ g2 | z (Tc'/>b/) b2 z (Te'/>d'/) d'2 | z (Tc'/>b/) b2 z (Ta/>g/) gc' | %23
 f>g Te>d d2 z G/>=B/ | =A/>c/=B/>d/ c/>e/d/>f/ e/>c/B/>d/ c/>e/d/>c/ | %25
 =Bc/d/ cTB c(a/4_b/4g/) a2 | z (Tg/>f/) f2 z c'/e/ Tf>g | g8 || %28
[M:4/4]"^2. Allegro"[Q:1/4=120] g2 g2 g2 z g | ecgc' =bg z g | ecgc' af z f | dBfb ge z g | %32
 c2 z f =BG z g | e2 z c' ac f2- | fged e2 Td>c | c/=B/c/d/ c/d/e/c/ d/c/d/e/ d/e/f/d/ | %36
 e/d/e/f/ e/f/g/e/ f/e/f/g/ f/g/a/f/ | gcgc' =bd g2 | g2 g2 g2 g2 | z2 e'2 e'4 | %40
 d'2 Td'3/2c'/4d'/4 e'b z b | c'bag fB b2 | z2 b2 z2 b2 | z Beg dB b2 | z4 z BeB | %45
 c/B/c/d/ c/d/e/c/ d/c/d/e/ d/e/f/d/ | e/d/e/f/ e/f/g/e/ f/e/f/g/ f/g/a/f/ | %47
 g/e/f/g/ a/f/g/a/ b/e/f/g/ a/b/c'/d'/ | e'/d'/c'/b/ a/g/f/e/ c'/b/a/g/ f/e/d/c/ | Bd e4 Td2 | %50
 e2 z g f2 z b | a2 z a g2 z c' | b2 z b =a2 z2 | d'2 d'2 d'2 z d | BGdg ec z c | cFcf dB b2- | %56
 b=a ab/c'/ ^fd z c' | b2"^tr" T=a>g g/d/g/a/ b/a/b/g/ | =a/d/a/b/ c'/b/c'/a/ bd g2- | %59
 g2 T^f2 g/d/=e/=f/ g/f/g/d/ | =e/g/a/b/ c'/b/c'/g/ ac f2- | f2 T=e2 f/c/f/g/ a/g/a/f/ | %62
 g/c/g/a/ b/a/b/g/ a2 z2 | z/ f/g/a/ b/a/b/f/ gB e2- | e2 Td2 e/B/e/f/ g/f/g/e/ | %65
 f/B/f/g/ a/g/a/f/ g/a/f/g/ e/a/g/a/ | f/g/e/f/ d/g/f/g/ e/f/d/e/ c/f/e/f/ | %67
 d/e/c/d/ B/e/d/e/ c/a/g/a/ f/e/d/c/ | =B/G/=A/B/ c/A/B/c/ d/G/A/B/ c/d/e/f/ | g8- | %70
 ge'/d'/ c'/b/a/g/ f2 z f | bd'/c'/ b/a/g/f/ e2 g2- | gc f2- fgec' | c'd'/c'/ =b/c'/d'/b/ e'g a2- | %74
 a_b/a/ g/a/b/g/ c'a/g/ f/g/a/f/ | bg/f/ =e/f/g/c/ a/g/a/f/ _d'/c'/b/d'/ | %76
 g/a/b/g/ c'/b/a/c'/ f/g/a/f/ b/a/g/b/ | =e/c/d/e/ f/d/e/f/ g/c/d/e/ f/g/a/b/ | %78
 c'2 c'2 c'/b/a/g/ f/e/d/c/ | d/B/c/d/ e/c/d/e/ f/B/c/d/ e/f/g/a/ | b2 b2 b/a/g/f/ e/d/c/B/ | %81
 c/d/e/c/ f/g/a/f/ d/e/f/d/ g/a/b/g/ | e/f/g/e/ a/b/c'/a/ f/g/a/f/ d/b/a/b/ | %83
"^56°" g/e/d/e/ a/e/d/e/ b/e/d/e/ c/c'/b/c'/ | a/b/g/a/ f/b/a/b/ g/a/f/g/ e/a/g/a/ | %85
 f/g/e/f/ d/g/f/g/ e/f/d/e/ c/f/e/f/ | dB e4 d2- | d2 c4 =B2 | g2 g2 g2 z g | gcgc' a4- | a4 g4- | %91
 g4 f4- | f2 ed/c/ =B2 z g | e2 z c' a2 z f | d2 z b g2 z c' | =a2 z d' =b2 z e' | c'c f2- fg ed | %97
 e2 Td>c c/=B/c/e/ d/c/d/f/ | e/d/e/g/ =B/=A/B/g/ c/B/c/g/ d/c/d/g/ | ecgc' =bg d2 | z2 e'2 e'4 | %101
 d'4- d'3 e' | c'2 z f =BG c2- | c2 T=B2 c2 z c' | agfe d=bc'f | e2 Td>c c4 |] %106
[M:3/4]"^3. Adagio."[Q:1/4=60] z2 g2 (g/a/b) | e3 f g2 | f2 f2 ga | Tg>f e2 z2 | z2 e'4- | %111
 e'2 (Td'3 c'/d'/) | e'2 b2 c'2- | c'2 b=a b2- | bc' T=a4 | b4 z2 | z2 b2 e2 | c'3 bc'd' | %118
 b3 a b2- | bc' a3 g | f3 aga | f>ag>fg>a | f2 b4- | b2 a4- | a3 bg>f | g>a g2 Tfe | %126
 e2 g2 (g/a/b) | e4 z2 | z2 c'4- | c'2 (T=b3 =a/b/) | c'2 g2 _a2- | a2 gf g2- | ga f3 g | %133
 g2 =b2 b2 | c'g _b3 c' | a2 =a3 a | bf _a3 b | g2 g3 g | ga f3 f | f3 ge>d | e>f e2 d>c | %141
 c2 e2 c2 | g6- | ga Tf3 g | g6 |][M:2/4]"^4. Allegro."[Q:1/4=120] c' g2 =b/c'/ (Tc'3/2b/4c'/4) | %146
 d' g2 c'/d'/ (Td'3/2c'/4)d'/4 | e'gd'gc'd' | =b3 g (Tb3/2a/4b/4) | c' g2 g/_a/ _b/a/b/g/ | %150
 ac' fg/=a/ (Ta3/2g/4a/4) | b f2 f/g/ _a/g/a/f/ | ge e'4 | z f d'4 | z g c'4- | %155
 c'e'/d'/ c'/d'/c'/b/ =a/b/a/g/ | ^f/d/=e/f/ g/f/g/=a/ b/a/b/c'/ | d'6- | d'6- | d'4 c'2- | %160
 c'=ad'c'ba | b2 (T=b3 =a/b/) | c'g _b3 c' | =ac' f3 a | b2 z dfd | B2 z gbg | f2 z d/e/ f/e/f/d/ | %167
 e2 z ece | d2 z2 z2 | z!p! d'(d'c')(c'b) | (bc')(c'b)(b=a) | (=ab)(ba)(ag) | (g=a)(ag)(g^f) | %173
 ^f2!f! d'4- | d'4 z2 | d'6- | d'c' c'4- | c'e'/d'/ c'/d'/c'/b/ =a/b/a/g/ | (^fg)(Bg)(=Af) | %179
 g2 z g/4=a/4=b/ (Tb3/2a/4b/4) | c' g2 =b/c'/ Tc'3/2b/4c'/4 | d' g2 c'/d'/ (Td'3/2c'/4d'/4) | %182
 e'gd'gc'd' |"^tr" T=b2 z2 ba/b/ | c'=b/a/ g/f/e/d/ c/c'/_b/c'/ | a/b/c'/b/ a/b/a/g/ f/g/f/e/ | %186
 d/e/f/e/ d/e/d/c/ B/b/a/b/ | g/a/b/a/ g/a/g/f/ e/f/e/d/ | c/e/d/e/ c/f/e/f/ c/f/e/f/ | %189
"^45" d/f/e/f/ d/g/f/g/ d/g/f/g/ | e/g/f/g/ e/a/g/a/ e/a/g/a/ | f/a/g/a/ f/b/a/b/ f/b/a/b/ | %192
 g/b/a/b/ f/b/a/b/ e/b/a/b/ | d/b/a/b/ e/b/a/b/ f/b/a/b/ | g/b/a/b/ f/b/a/b/ e/b/a/b/ | %195
 d/B/c/d/ e/d/e/f/ g/f/g/a/ | b6- | b6- | b4 a2- | ab/c'/ b/c'/b/a/ g/a/g/f/ | ge b2 z2 | %201
 z e a2 z2 | z f b2 z2 | z g e'2 z2 | z cac'fa | d3 f(fe) | d2 z2 z2 | z6 | z!p! b(ba)(ag) | %209
 (ga)(ag)(gf) | fB!f! b4- | befg a2 | a3 bgf | ga g2 Tf>e | eB (e/f/g) (f/g/a) | %215
 ge (g/a/b) (a/b/c') | z6 | b3 b Ta2 | g2 d2 e2 | dB/c/ d/c/B/c/ d/c/d/e/ | %220
 f c2 e/f/ (Tf3/2e/4f/4) | g c2 f/g/ (Tg3/2f/4g/4) | acgcfg | e2 z2 z2 | z c'/b/ a/b/a/g/ fc' | %225
 _d'2 z2 z2 | z b/a/ g/a/g/f/ eb | c'2 z2 z2 | z b(ba)(ag) | (g_d')(d'c')(c'b) | b6- | b_d'c'bag | %232
 ab Tg3 f | f6- | (f6 | f)a(ag)(gf) | eG (c/d/e) (d/e/f) | ec (e/f/g) (f/g/a) | gc c'2 =b2 | %239
 (c'e')(e'd')(d'c') | =bd'/c'/ b/c'/b/a/ g/a/g/f/ | ec g2 z g | ac'/b/ a/b/a/g/ f/g/f/e/ | %243
 dB f2 z f | gb/a/ g/a/g/f/ e/f/e/d/ | ca/g/ f/g/f/e/ d/e/d/c/ | d=B z2 z2 | z6 | z!p! g(gf)(fe) | %249
 (ef)(fe)(ed) | d/!f!G/A/=B/ c/B/c/d/ e/d/e/f/ | g6 | g6 | g6- | g2 z g/a/ (T=b3/2a/4b/4) | %255
 c' g2 =b/c'/ (Tc'3/2b/4c'/4) | d' g2 c'/d'/ (Td'3/2c'/4d'/4) | e'gd'gc'd' | %258
 =bd'/c'/ b/c'/b/a/ g/a/g/f/ | eg/f/ e/f/e/d/ c/c'/_b/c'/ | a/b/c'/b/ a/b/a/g/ f/g/f/e/ | %261
"^117" d/e/f/e/ d/e/d/c/ B/b/a/b/ | g/a/b/a/ g/a/g/f/ e/f/e/d/ | ca/g/ f/g/f/e/ d/e/d/c/ | %264
 =B2 z =bc'g | fe e2 Td>c | c2 z2 z g | a2 z2 z2 | f2 z2 z b | g2 z2 z2 | %270
 c'/d'/c'/b/ a/b/a/g/ f/g/f/e/ | d2 z =bc'g | ad e2 Td>c | !fermata!c2 z2 z2 |] %274
V:2
 z8 | z4 c'3 (e/d/) | d3 f/e/ e(g/f/) f(a/g/) | g2 z g fedc | d2 z d ed z d | ed c2 de d(e/>c/) | %6
 d(g/>e/) d(e/>c/) d(g/>e/) (f/>d/)(e/>!tenuto!c/) | d2 z B/>d/ c/>e/d/>f/ e/>g/f/>a/ | %8
 g/>e/d/>f/ e/>g/f/>e/ deeTd | eb b2- b4- | b3 a- a/>f/g/>a/ gTf/>e/ | e2 z/ a/g/f/ =effTe | %12
 fc c2 z/ c'/b/=a/ bTa/g/ | g2 z (T=a/>g/) g2 z (Tf/>e/) | e2- ec'- c'/>=a/b/>c'/ b.Ta/>g/ | %15
 g2 z (g/>c/) c2 z (d/>B/) | G2 z G f>ge>d | d2 z2 z4 | z2 z G/>=B/ =A/>c/B/>d/ c/>e/d/>f/ | %19
 e/>c/=B/>d/ c/>e/d/>c/ BccTB | c2 z (Te/>d/) d2 z =B | c2 z (Tf/>e/) e2 z (Tg/>f/) | %22
 f2 z (Te/>d/) d2 z c | c=B Tc>B BG g2- | g4- g3 f- | f/>d/e/>f/ eTd/c/ c2 z (Te/>d/) | %26
 d2 z (Td/>c/) c4 | =B8 ||[M:4/4] z8 | z8 | z8 | z8 | z8 | z8 | z8 | z8 | z8 | g2 g2 g2 g2 | %38
 ecgc' =bg z g | ecgc' af z f | fBfb ge z e | c2 de d2 z2 | b2 z2 b2 z2 | b2 b2 b2 z b | %44
 gebe' d'b z2 | z2 f2 z2 g2 | z2 A2 z2 B2 | z8 | z4 z2 (a2 | a)bgf g2 Tf>e | e2 z e d2 z d | %51
 c2 z f e2 z e | d2 z g ^f2 z d' | bgdg ^fd d'2 | z2 b2 b4 | =a2 (Ta3/2g/4a/4) b2 z B | %56
 e2 z2 z d' g2 | g2 T^f2 g2 z2 | z4 g/d/g/=a/ b/a/b/g/ | =a/d/a/b/ c'/b/c'/a/ b2 z2 | %60
 z4 f/c/f/g/ a/g/a/f/ | g/c/g/a/ b/a/b/g/ ac f2- |"_3.9" f2 T=e2 f/c/d/_e/ f/e/f/c/ | %63
 d2 z2 e/B/e/f/ g/f/g/e/ | f/B/f/g/ a/g/a/f/ ge e'2- | e'2 d'4 c'2- | c'2 b4 a2- | a2 g2- gc-cf | %68
 d2 ec =B2 z2 | z/ c/=B/=A/ B/d/c/e/ d/G/A/B/ c/d/e/f/ | g2 z2 z a/g/ f/e/d/c/ | %71
 B2 z B eg/f/ e/d/c/B/ | A2 z a g2 z e | d2 z =b c'2 z c | _B2 z g a2 z f | f2 z =e f2 z2 | z8 | %77
 g2 a2 =e2 z2 | c2 g2 a2 z2 | f2 g2 d2 z2 | B2 f2 g2 z2 | z8 | z8 | z4 z2 e'2- | e'2 d'4 c'2- | %85
 c'2 b4 a2 | a/b/a/b/ g/c'/b/c'/ a/b/g/a/ f/b/a/b/ | g/a/f/g/ e/a/g/a/ f/g/e/f/ d/g/f/g/ | %88
 ecgc' =bg z2 | c'2 c'2 c'2 z2 | b2 b2 b2 z2 | a2 a2 a2 z2 | g2 g2 g2 z =B | c2 z c c2 z c | %94
 B2 z f B2 z e | c2 z f d2 z g | e2 z d =BG c2- | c2 T=B2 c2 z2 | z8 | g2 g2 g2 z g | %100
 ecgc' af z f | fBfb ge z2 | z c a2 z g ed | e2 Td>c c2 z c | fedc =Bdec | c2 T=B2 c4 |] %106
[M:3/4] z6 | z6 | z6 | z2 g2 (g/a/b) | e3 f g2 | f2 f2 ga | g2 gfga | f3 fgd | e3 def | d2 f2 B2 | %116
 g6- | g2 fg a2- | a2 gf g2- | ga f3 e | d3 fef | d>fe>de>f | d2 z2 z2 | c3 cf>e | d2 f2 B2 | %125
 e2 e2 Td2 | e4 z2 | z2 e2 (e/f/g) | c3 d e2 | d2 d2 ef | e2 e>de>f | d3 ded | c2 c4 | =B2 d3 d | %134
 G2 =e3 e | fc _e3 f | d2 d3 d | e2 e>dc>=B | c3 =Bcd | =B2 d2 G>B | c2 c2 T=B2 | c4 z2 | %142
 z2 G2 e2 | c6 | =B6 |][M:2/4] z4 z2 | z4 z2 | z6 | z6 | z4 z2 | z6 | z6 | z6 | z6 | z6 | z6 | z6 | %157
 g d2 ^f/g/ (Tg3/2f/4g/4) | =a d2 g/a/ (Ta3/2g/4a/4) | bd=adga | ^f3 d (Tf3/2=e/4f/4) | %161
 g d2 d/=e/ =f/e/f/d/ | eg cd/=e/ (Te3/2d/4e/4) | f c2 c/d/ e/d/e/c/ | dB a4- | ag e'4- | %166
 e'c' d'4- | d'g c'4- | c'e'/d'/ c'/d'/c'/b/ =a/b/a/g/ | ^f2 z2 z2 | z6 | z!p! d'(d'c')(c'b) | %172
 (bc')(c'b)(b=a) |!f! (=ab)(ba)(ag) | (g=a)(ag)(g^f) | (^fg)(g=f)(fe) | e3 e(ed) | d2 z2 z c | %178
 (cB)(dc)(cd) | =B2 g4- | g6- | g6- | g4 f2- | fg/a/ g/a/g/f/ e/f/e/d/ | e2 z2 z2 | z6 | z6 | z6 | %188
 z6 | z6 | z6 | z6 | z6 | z6 | z6 | z6 | e B2 d/e/ (Te3/2d/4e/4) | f B2 e/f/ (Tf3/2e/4f/4) | %198
 gBfBef | d2 z2 z2 | B2 z geg | c2 z c'fa | d2 z d'gb | e2 z gc'e | a6- | ac'(ba)(ag) | %206
!p! (fb)(ba)(ag) | (ga)(ag)(gf) | (fg)(gf)(fe) | (ef)(fe)(ed) | d2 z!f! dgf | e2 z2 z c | %212
 B2 fed z | ef e2 Td2 | e2 z2 z2 | eB (e/f/g) (f/g/a) | (gf)(fe)(ef) | d2 z e' (Td'3/2c'/4d'/4) | %218
 e'b(ba)(ag) | f2 z2 z2 | (c'6 | c'6) | c'4 b2- | b_d'(d'c')(c'b) | a2 z2 z2 | z b(ba)(ag) | %226
 g2 z4 | z a(ag)(gf) | f2 z2 z2 | z6 | z g(gf)(f=e) | =e2 z g c2 | f2 f2 T=e2 | f6- | ff(fe)(ed) | %235
 d2 d3 d | G2 z2 z2 | cG (c/d/e) (d/e/f) | ec (e/f/g) (f/g/a) | g2 (gf) f2- | %240
 fd g/a/g/f/ e/f/e/d/ | cG z ece | fc z cfc | df/e/ d/e/d/c/ B/c/B/A/ | G2 z BeG | A2 z cAf | %246
 d!pp!g(gf)(fe) | (ef)(fe)(ed) | (de)(ed)(dc) | (cd)(dc)(c=B) | =B2 z2 z2 |!f! ed z dec | %252
 =B2 z cBd | (c=B)(Bd)(ef) | dG g4- | g6- |"_117" g6- | g4 f2- | fdgfed | c2 g4- | g2 fg a2- | %261
 afbagf | ef g4- | gc f4 | f2 z f e2 | dc c2 T=B2 | c2 z2 z e | f2 z2 z2 | d2 z2 z d | e2 z2 z2 | %270
 c2 f/g/f/e/ d/e/d/c/ | =B2 z dge | c2 c2 T=B2 | !fermata!c2 z2 z2 |] %274
V:3
 CB,A,G, F,D,G,G,, | C,CA,_B, E,E/>D/ EC | FDGG, C,CA,_B, | E,3 E DC=B,C | G,2 z =B, CB, z B, | %5
 C_B,A,G, F,E,B,E, | B,8- | B,2 z2 z B,/>D/ C/>E/D/>F/ | E/>G/F/>A/ G/>G,/A,/>C/ B,E,B,B,, | %9
 E,2 z2 z B,/>D/ C/>E/D/>F/ | E/>G/F/>A/ G/>G,/A,/>C/ B,E,B,B,, | E,2 z _D CF,CC, | %12
 F,2 z E =DG,DD, | G,GFF, E,EDD, | C,2- C,C DG,DD, | G,2 z C A,F, z B, | EE, z E DG,[EG]C | %17
 =B,G G2- GFEB, | CA, G,2 z G,/>=B,/ =A,/>C/B,/>D/ | C/>E/D/>F/ E/>E,/F,/>A,/ G,C,G,G,, | %20
 C,2 z (C/>B,/) =B,2 z (TF/>E/) | E2 z (TD/>C/) C2 z (_B,/>A,/) | %22
 A,2 z (TG,/>F,/) F,2 z (TE,/>D,/) | D,G,CC, G,2 z2 | %24
 z G,/>=B,/ =A,/>C/B,/>D/ C/>E/D/>F/ E/>E,/F,/>_A,/ | G,C,G,G,, C,2 z (C/>B,/) | %26
 B,2 z (TB,/>A,/) A,4 | G,8 ||[M:4/4] C,C =B,=A,/G,/ CC,B,G, | CC/D/ EC GG,/=A,/ =B,G, | %30
 C/=B,/C/D/ E/D/E/C/ FF,/G,/ _A,/G,/A,/F,/ | _B,/A,/B,/C/ D/C/D/B,/ E/D/E/F/ G/F/G/E/ | %32
 A/B/A/G/ F/G/A/F/ G/A/G/F/ E/F/E/D/ | C/D/C/_B,/ A,/B,/A,/G,/ F,/E,/F,/G,/ A,/G,/A,/F,/ | %34
 G,=B,CF, G,F,G,G,, | C,2 z C =B,G, z B, | CC, z C D_B, z D | E/F/E/D/ C/D/E/F/ G/F/G/A/ G/F/E/D/ | %38
 C/=B,/C/D/ E/D/E/F/ GG,B,G, | C/_B,/C/D/ C/B,/A,/G,/ F,/E,/F,/G,/ A,/G,/A,/F,/ | %40
 B,/A,/B,/C/ B,/A,/G,/F,/ E,/D,/E,/F,/ G,/F,/G,/E,/ | A,G,F,E, B,2 z B, | G,E,B,E DB,FB | %43
 GEG,E, B,/=A,/B,/C/ D/C/D/B,/ | E/D/E/F/ G/F/G/A/ BB/A/ G/F/G/E/ | AA, z A, B,B,, z B, | %46
 CC, z C DD, z D | EB,FB, GE z A, | G,E, z G, A,F, z F | DB,CA, B,A,B,B,, | %50
 E,/D,/E,/F,/ G,/F,/G,/A,/ B,/A,/B,/C/ D/C/D/E/ | FF,/G,/ A,/G,/A,/B,/ C/B,/C/D/ E/D/E/F/ | %52
 GG,/=A,/ B,/A,/B,/C/ D/C/D/=E/ ^F/E/F/D/ | GG,/=A,/ B,/A,/B,/G,/ D/_E/D/C/ B,/C/B,/A,/ | %54
 G,/^F,/G,/=A,/ B,/A,/B,/G,/ C/B,/C/D/ E/D/E/C/ | F/E/F/G/ F/E/D/C/ B,/=A,/B,/C/ D/C/D/B,/ | %56
 C/B,/C/D/ E/D/E/C/ DB,EC | DCDD, G,D G2- | G2 ^F2 GB,ED | C=A,DD, G,DB,G, | CG,=E,C, F,F_DA, | %61
 B,G,CC, F,F_DA, | B,G,CC, F,CA,F, | B,F=DB, E,_ECG, | A,F,B,B,, E,ECG, | A,F,B,B,, E,EAC | %66
 DFGG, CEFF, | B,DEG, A,CA,F, | G,2 G,2 G,2 z G, | E,C,G,C =B,G, z G, | E,C,G,C A,F, z F, | %71
 D,B,,F,B, G,E, z C | FA/G/ F/E/D/C/ =B,G,CA | FDGG, C2 z F | _D_B,EE, A,2 z D | G,B,CC, F,FB,_D | %76
 _EG,A,C _DFG,B, | C2 C2 C2 z C | A,/F,/G,/A,/ B,/C/D/=E/ F2 z2 | B,2 B,2 B,2 z B, | %80
 G,/E,/F,/G,/ A,/B,/C/D/ E2 z G, | A,CA,F, B,DB,G, | CEFE DCB,D | EE,F,F GG,E,C, | F,A,B,D EGAC | %85
 DFGB, CEFA, | B,G,CC, F,A,B,B,, | E,2 z E DFGG, | C/=B,/C/D/ E/D/E/F/ G/F/G/A/ G/F/E/D/ | %89
 E/F/E/D/ C/D/E/C/ F/E/F/G/ F/G/F/E/ | D/E/D/C/ B,/C/D/B,/ E/D/E/F/ E/F/E/D/ | %91
 C/=B,/C/D/ C/D/E/C/ D/C/D/E/ D/E/D/C/ | =B,/G,/=A,/B,/ C/D/E/F/ GG,/A,/ B,G, | %93
 C/=B,/C/D/ C/_B,/_A,/G,/ F,/E,/F,/G,/ F,/G,/A,/F,/ | B,/A,/B,/C/ D/C/D/B,/ E/F/E/D/ C/D/E/C/ | %95
 F/G/F/E/ D/E/F/D/ G/A/G/F/ E/F/G/E/ | A/G/F/E/ D/C/=B,/=A,/ G,/F,/E,/D,/ C,F, | %97
 G,F,G,G,, C,C=B,G, | CC,G,F, E,C,=B,G, | C/=B,/C/D/ E/D/E/F/ G/F/G/A/ G/F/E/D/ | %100
 C/_B,/C/D/ C/B,/A,/G,/ F,/E,/F,/G,/ A,/G,/A,/F,/ | %101
 B,/A,/B,/C/ B,/A,/G,/F,/ E,/D,/E,/F,/ G,/F,/G,/E,/ | A,/B,/A,/G,/ F,/G,/A,/F,/ G,=B,CF, | %103
 G,F,G,G,, C,E/D/ C/_B,/A,/G,/ | F,2 z ^F, G,=F,E,F, | G,2 G,,2 C,4 |][M:3/4] E,2 E2 D2 | %107
 C3 B,/A,/ G,2 | A,2 B,2 B,,2 | E,2 E2 D2 | C3 B,/A,/ G,2 | A,2 B,2 B,,2 | E,2 ED E2 | D4 G,2 | %114
 C2 F2 F,2 | B,4 D2 | E4 G,2 | A,4 F2 | D2 E2 G,2 | A,2 A4 | B6- | B6- | B3 AGF | E>CF>ED>C | %124
 B,2 D2 E2 | CA, B,2 B,,2 | E,2 E2 D2 | C2 C2 B,2 | A,3 G,/F,/ E,2 | F,2 G,2 G,,2 | C,2 C2 F,2 | %131
 B,2 B,2 E,2 | A,2 A4 | G2 F>=EF>G | =E2 C2 C,2 | F,2 F2 F,2 | B,2 B,,2 B,2 | E2 E,2 G,2 | %138
 A,3 G,A,F, | G,2 =B,2 C2 | A,F, G,2 G,,2 | z6 | z2 E,2 C,2 | A,6 | G,6 |][M:2/4] C2 E2 C2 | %146
 G2 =B,2 G,2 | C2 _B,2 A,2 | G,D G3 F | E2 C2 C,2 | F,2 F2 E2 | D2 B,2 B,,2 | %152
 E,2 z E,/F,/ G,/F,/G,/E,/ | B,2 z D=B,G, | E2 z C/D/ E/D/E/C/ | ^F3 GCE | D3 CB,=A, | B,2 G,2 G2 | %158
 ^F2 D2 F2 | G2 =F2 E2 | D2 ^F,2 D,2 | G,2 G2 G,2 | C2 =E,2 C,2 | F,2 =A,2 F,2 | %164
 B,2 z B,/C/ D/C/D/B,/ | E2 z E,/F,/ G,/F,/G,/E,/ | B,2 =B,3 =A,/B,/ | %167
 CE/D/ C/D/C/_B,/ =A,/B,/A,/G,/ | ^F,3 GCE |!p! D6- | D6- | D6- | D6- | D!f!D(DC)(CB,) | %174
 (B,C)(CB,)(B,=A,) | =A,B(B=A)(AG) | (G=A)(AG)(G^F) | ^F3 GCE | DG, D2 D,2 | G,G(G=F)(FE) | %180
 EEEDDC | =B,2 B,=A,B,G, | CC,_B,B,,_A,F, | G,2 z DGG, | C2 z CEC | F2 z F,A,F, | B,2 z B,DB, | %187
 E2 z E,G,E, | A,2 z F,A,F, | B,2 z G,B,G, | C2 z CC,C | D2 z B,DB, | EE,DD,CC, | B,B,,CC,DD, | %194
 EE,DD,CC, | B,2 z CB,A, | G,GGFFE | EDDCDB, | EE,DD,CC, | B,B,, z2 z2 | EG/F/ E/F/E/D/ C/D/C/B,/ | %201
 A,A/G/ F/G/F/E/ D/E/D/C/ | B,c/A/ G/A/G/F/ E/F/E/D/ | CE/D/ C/D/C/B,/ A,/B,/A,/G,/ | %204
 F,A,/G,/ F,/G,/.F,/E,/ D,/E,/D,/C,/ | B,,2- B,,/B,/C/D/ E/F/G/A/ |!p! B6- | B6 | B6- | B6- | %210
 B!f!B/A/ G/A/G/F/ E/F/E/D/ | C/D/C/B,/ A,/B,/A,/G,/ F,/G,/F,/E,/ | D,/E,/D,/C,/ B,,DEB, | %213
 EA,B,A,B,B,, | E,2 z2 z2 | z6 | E B,2 D/E/ (TE3/2D/4E/4) | F B,2 E/F/ (TF3/2E/4F/4) | GB,FB,EE, | %219
 B,3 B,A,G, | A,2 AGAF | =E2 EDEC | FF,_EE,_DB, | C2 z C=EC | F2 z F,A,F, | B,2 z B,_DB, | %226
 E2 z E,G,E, | A,2 z A,CA, | _D_D,DCCB, | B,BBAAG | G2 B,2 _D2 | C3 =EFE | FB,CB,CC, | F,FF_EE=D | %234
 DDDCC=B, | =B,2 B,3 B, | CC, z2 z2 | z6 | CG, C/D/E D/E/F | EC E/F/G F/G/A | G4 z G, | %241
 CE/D/ C/D/C/_B,/ A,/B,/A,/G,/ | F,2 z F,A,F, | B,D/C/ B,/C/B,/A,/ G,/A,/G,/F,/ | E,2 z EGE | %245
 A,2 z A,F,A, |!pp! G,6- | G,6- | G,6- | G,6- | G,2 z2 z2 |!f! C G,2 =B,/C/ (TC3/2B,/4C/4) | %252
 DG, z C/D/ (TD3/2C/4D/4) | EG,DG,CD | =B,/G,/=A,/B,/ C/D/E/F/ G/F/E/D/ | %255
 E/F/G/F/ E/F/D/E/ C/E/D/C/ | =B,/C/D/C/ B,/C/=A,/B,/ G,B, | CC,_B,B,,A,F, | G,2 z G,GG, | %259
 C2 z CEC | F,2 z F,FF, | B,2 z B,,B,B,, | E,2 z B,EG, | A,2 z A,F,A, | G,2 z DEC | FC G2 G,2 | %266
 CG/F/ E/F/E/D/ C/D/C/B,/ | A,/B,/C/B,/ A,/B,/A,/G,/ F,/G,/A,/F,/ | %268
 B,/C/D/C/ B,/C/B,/A,/ G,/A,/G,/F,/ | E,G/F/ E/F/E/D/ C/D/C/B,/ | A,/B,/A,/G,/ F,CFF, | G,2 z FEC | %272
 FF, G,2 G,,2 | !fermata!C,2 z2 z2 |] %274
V:4
 [EGc]2 [Ec]2 [Ac]2 [G=B]2 | [Gc][ce][cf][_Bd] [Gc]3 [Ge] | [Acd]2 [G=Bd]2 ([ce-]2 [ce])d- | %3
 d c2 [Gc] [F=B][EGc][Gd][Gce] | [G=Bd]2 z [Gd] ed z [Gdg] | %5
 [ce][dg][cf][_Be] [Ad][GBe][FBd][GBe] | [FBd]2 z2 z4 | z4 z deB | %8
 [Bg][Bdf][Be][cf] [Adf] [GBe]2 [FBd] | [GBe]2 z2 z deB | [Bg][Bdf][Be][cf] [Adf] [GBe]2 [FBd] | %11
 [GBe]2 z [FB] BA/B/ cc | z2 z [Gc] c[GB]/c/ dd | [GBd][Be] [=Ad]2 [Gc]2 Bf | %14
 e3 (e [^Fcd]) [GBd]2 [F=Ad] | [GBd]2 z [Ge] [ce][_Af] z [Fd] | [Ge]2 z [Gc] c=Bce | %17
 [Gd]2 [=Bd]3 [GBd][Gc][FGd] | c2 [DG=B]2 z g2 [df] | [Gce][G=Bd][Gc][Ac] [FB] [EGc]2 [DGB] | %20
 [EGc]2 z e/>d/ d2 z [=Bd]/>c/ | c2 z [F_B]/>[EA]/ [EA]2 z [Gdg]/>[cf]/ | %22
 [cf]2 z [Be]/>[Ad]/ [Ad]2 z [Gc] | [Fc][G=B] [EGc]2 [DGB]2 z2 | z g2 [df] [Gce][G=Bd][Gc][_Ac] | %25
 [F=B] [EGc]2 [DGB] [EGc]2 z [EA] | [DA]2 z [DGd] c3 d/c/ | [G=B]8 ||[M:4/4] g2 g2 [eg]2 g2 | %29
 ee f/g/[eg] [=Bdg][GB][Gd][Bg] | e/d/e/f/ g2 a>gfe | d/c/d/e/ f2 g>abe | %32
 [ce]2 [Af][cf] [=Bd]2 c/B/c/d/ | e2 ff/g/ z4 | [=Bf][Gdg][Ge][Acf] [Gce]2 [GBd]2 | %35
 [EGc]2 z e d=B z [Gd] | [Ge]2 z e fd z f | [Ge]2 [ce][cg] [=Bdg]2 [Bdg]2 | %38
 [ceg]2 [cg][ce] [=Bd]2 [dg]f | e2 ef/g/ a2 fe | d2 de/f/ [Bg]2 [Be]2 | %41
 [Ace][Be][Ad][Ge] [Bdf]2 z [Bdf] | egfg fd f2 | egbg f2 [Bf]2 | [Bg]2 [Beb][Bg] [Bdf]2 [Be][Be] | %45
 e2 f[ef] [df]2 [dg]f | eg a2 a2 ba | g2 f2 e2 z e | e2 z e f2 z [Af] | %49
 [ABf]2 [Ge][Fce] [GBe]2 [FBd]2 | [GBe]2 [Be]2 [Fd]2 [Bf]2 | [Acf]2 [cf]2 [Ge]2 [cg]2 | %52
 [Bdg]2 [dg]2 [=Ad^f]2 [Ada]2 | [Bdg]2 [dg]2 [=Ad^f]2 g2 | [Bdg]2 [Gdg]2 [GBe]2 [GBc]2 | %55
 [=Ac]2 [Acf]2 [Bdf]2 ff/d/ | e2 cg ^f g2 e | [GBd]2 [^F=Ad]2 [GBd]2 [Bd]2 | %58
 [=Acd]2 [Acd]2 [Bd]2 [Bg]2 | [=Aeg]2 [Ac^f]2 [Bdg]2 g2 | [Gc=e]2 [Gcg]2 [Acf]2 [Bf][cf] | %61
 [G_df]2 [GB=e]2 [Acf]2 [Bf][cf] | [G_df]2 [GB=e]2 [Acf]2 f2 | f2 fd _e2 e2 | %64
 [ef]2 [df]2 [Be]2 e2 | [cef]2 [Adf]2 [Gdg]2 [ce]2 | [Acf]2 [Bd]2 [Be]2 cf | %67
 [Af]2 [Ge][Be] [Gce]2 [Fcf][cdf] | [=Bd]2 [ce]2 [Bd]2 z [Bdg] | gede d=B z g | ge e2 f2 z f | %71
 fd d2 eg z [ce] | gf f2 f2 ee | d2 d2 [ce]3 [cf] | f2 e2 e2 ff | %75
 [B_df]2 [Gc=e]2 [Acf]2 [Bdf][Bfb] | [B_eg][Be][ce][Aea] [Af][A_d][Bd][Gd] | %77
 [=EGc]2 [FAc]2 [EGc]2 z [Gc=e] | f2 =ef/g/ a2 z2 | [Bdf]2 [B_eg]2 [Bdf]2 z [Bdf] | %80
 e2 de/f/ g2 z [Be] | [ce]2 [cf]2 [Bdf]2 g2 | g2 [Acf]2 fedf | e2 d2 egge | %84
 [cea]2 [da]2 [dg]2 [cg]2 | [cf]2 [Bf]2 [Be]2 [Ae][Fcf] | [FAd][Ge] [Ge]2 [Ae]2 [Ad]2 | %87
 d2 cg [cf]2 [=Bd]2 | [Gce]2 [cg]2 [=Bdg]2 [Bdg]2 | g2 eg [ca]4 | [Bfa]2 ab/a/ [Beg]4 | %91
 [Aeg]2 [Ae]2 [Af]4 | fg/f/ eg [=Bdg]2 [dg][Bg] | [Ge]2 [Ge]2 [Af]2 fe | [Fd]2 [Bf]2 [Bg]2 g2 | %95
 f2 f2 dg g2 | ef f2- fded | [EGc]2 [DG=B]2 [EGc]2 [Gd]2 | [Ge]2 [G=Bd]2 [Gc][Ge][Gd][GBd] | %99
 [Gce]2 [cg]2 [=Bdg]2 [Bd]2 | [Ge]2 [ceg]2 [cea]2 c2 | [Fd]2 [Bdf]2 [Beg]2 [Be]2 | %102
 e2 af [=Bd][Gdg][Ge][Acd] | [EGc]2 [DG=B]2 [EGc]2 [Gce]2 | [Acf]2 z [cea] [=Bdg]2 [cg][Acf] | %105
 [Gce]2 [G=Bd]2 [EGc]4 |][M:3/4] [GBe]2 g3 f | [Ge]4 [Be]2 | [Fce]2 [Fd]4 | [GBe]2 g3 f | %110
 [Ge]4 [Be]2 | [Fce]2 [Fd]4 | [GBe]4 [Gc]2 | [Ff]4 g2 | e2 f2 e2 | [FBd]4 [Bf]2 | [Bg]4 [Be]2 | %117
 [Gce]2 [Fcf]2 [Acf]2 | [ABf]2 [GBe]2 [Beb]2 | [ceb]2 [cfa]4 | [dfa]4 [eg]2 | [df]2 [eg]4 | %122
 f3 d ed | [GBc]2 c2 f>e | [Ad]2 [ABf]2 [Be-]2 | [ce]2 [GBe]2 [FBd]2 | [GBe]2 [Bg]4 | %127
 [ceg]2 [Ge]4 | [Ace]4 [Gcg]2 | [Acf]2 [G=Bd]4 | [EGc]2 [Gce]2 [Acf]2 | [Adf]2 [Gdg]2 [Beg]2 | %132
 [cg]2 [cf]4 | [=Bdg]2 [GBd]2 [GBd]2 | [Gc]2 [GB=e]4 | [Af]2 [=Ae]4 | [Bd]2 [_Ad]4 | %137
 [GBe]4 [ce][=Bd] | c4 f2 | f2 [df]2 [ce]2- | [ce]d [EGc]2 [DG=B]2 | [EGc]4 z2 | z2 [Gcg]2 [Gce]2 | %143
 [Gc]2 [Fcf]4 | [G=Bd]6 |][M:2/4] [Gce]2 [Gc]2 [Gce]2 | [G=Bd]2 [Gdg]2 [Bf]2 | [Ge]2 [Gdg]2 [cf]2 | %148
 [=Bdg]4 [GBd]2 | [Gc]2 [Gce]4 | [Acf]2 [=Acf]4 | [Bf]2 [Fd]4 | [GBe]2 z eee | %153
 [FBd]2 z [F=Bd][Gd][Bg] | [cg]2 z ege | [=Acd]3 [Bd][Ae][GAc] | [^F=Ad]3 d2 d | [Gd]2 [Bdg]4 | %158
 =a2 ^f2 d2 | [Bd]2 [=Ad]2 [Gcg]2 | [=Ac^f]2 [Acd]2 [^FAd]2 | [GBd]2 [=Bd]4 | %162
 [Gce]2 [G_Bc]2 [GB=e]2 | [=Acf]2 [Fcf]2 [A_e]2 | [Fd]2 z [Bd][_ABf][ABf] | [ABf][GBe] z eee | %166
 [FBe]2 [FGd]4 | [EGd][Gc] [EGc]2 [Ec]2 | [D=Ac]3 [Bd][Ae][GAc] | [^F=Ad]6 | [GBd]6 | [^Fd]6 | %172
 [GBd]6 | [^F=Ad]2 d4 | d2 d4 | d2 d2 d2 | e2 [ce]2 [=Ace][Acd] | [=Acd]3 [Bd][Ae][Gc] | %178
 [^F=Ad][GB] d4 | [G=Bd]2 [Bd]2 [Bdg]2 | [cg]2 [Gc][F=B][FB][Ec] | d2 dcdg | [Ge]2 [dg]2 [cf]2 | %183
 [G=Bf]2 z fed | e2 z ece | [Ac]2 z [Ac][Fcf][Ac] | [Fd]2 z [Bd][Bf][db] | [Bg]2 z [Bg][Be][GBe] | %188
 [Ace]2 z f2 f | f2 z [Bd]d[Bd] | g2 z4 | [Bfa]2 z [df][Bfb][Bfa] | [Bg]2 [Bf]2 [Be]2 | %193
 [Bd]2 [Be]2 [Bf]2 | [Bg]2 [Bfb]2 [ea]2 | [da]2 z [ea][dg][Bdf] | [Be]2 [Be][Ad][Ad][GBe] | %197
 [Bf]2 fefb | [Bg]2 [fb]2 [ea]2 | [da]2 z2 z2 | [Bg][Beb] [Bg]2 [ceg]2 | [cea]2 [ca]2 f-f/e/ | %202
 af bb g2 | g2 [ce]2 [ce]2 | [Acf]2 [ca]2 ff/e/ | [da]3 [Bfa] [Bg][eg] | [df]6 | [eg]6 | [df]6 | %209
 [eg]6 | f2 ef g2 | e2 [Fcf]2 [ca]2 | [B-fa-]2 [Bda][Bf][Bg][Bdf] | [Beg][cf] [GBe]2 [FBd]2 | %214
 [GBe]2 z2 z2 | z6 | [Beg]2 [Bdf]2 [Bg]2 | [Bdf]2 [Bg]2 [Adf]2 | [Be]2 [Bd]2 [GBe]2 | %219
 [Bdf]3 [Bdf]2 [Be] | [cf]2 f=efa | g2 gfg=e | [Acf]2 [Gc]2 [FBf]2 | [GB=e]2 z [Ge][cg][dg] | %224
 [ca]2 z [ca][cf][Acf] | [B_df]2 z [Bdf]2 [Bdf] | [Bg]2 z geg | [cea]2 z e2 f | f2 [fb]aag | %229
 [_dg]2 [dg][cf][cf][B=e] | [B=e]2 [_df]2 [Bf]2 | [B=e]2 [Gc][Ac][cg] z | [Acf][B_df] f2 =e2 | %233
 [Acf]2 [Ac]2 [Ac]2 | [F=B]2 [FBd][Ge][Ge][Gdf] | [Gdf]2 [Gdf]3 [Gdf] | [Gce]2 z2 z2 | z6 | %238
 [Ge]2 e/d/c f/e/d | ce g/f/e a/g/f | [=Bdg]4 z [GBd] | [Gce]4 [Gce]2 | [Acf]2 z f2 f | %243
 [FBd]4 [FBd]2 | [GBe]2 z e2 e | [Ace]2 z [ce][Ad][Fcd] | [G=Bd]6 | [Gce]6 | [G=Bd]6 | [Gce]6 | %250
 [G=Bd]2 z2 z2 | g2 [dg] z [ceg]2 | [=Bdg]2 z [Gce] [FBd]2 | [Gc]2 [F=Bd]2 [Gce]2 | %254
 [Gd][dg] [eg][ce] [=Bd]2 | c/d/e/d/ c2 e2 | d=B d2 [GB][Gd] | [Ge]2 [dg]2 c2 | %258
 [=Bdg]2 z [Bd]2 [Bdg] | [Gce]2 z ecc | [FAc]2 z [Gc]2 [Acf] | [Fd]2 z [Fd]2 [Fd] | %262
 [GBe]2 z [Beg]2 [Be] | [ce]2 z f2 f | [=Bf]2 z [FB][Gc][Gce] | [Acf][Gce] [ce]2 [=Bd]2 | %266
 [Gce]2 [Gc]2 [Ge]2 | f2 f-f/g/ a/g/f/e/ | [Bd][Bf] [dfb]2 [Be]B | [Bg][Be] [Bg]2 [ceg]2 | %270
 [cea]2 [cfa]2"^(6) ( 5)" dc | g2 z g2 g | [cf]d [EGc]2 [DG=B]2 | !fermata![EGc]2 z2 z2 |] %274
V:5
 x4 D4 | EG F2 x4 | x4 G2 F2 | G3 x5 | x4 G2 x2 | x8 | x8 | x5 b2 [fa] | x8 | x5 b2 [fa] | x8 | %11
 x4 [=EG]F[FA][_EG] | x4 [^F=A]G[GB][FA] | x6 F2 | B2 =AG x4 | x8 | x4 F2 [EG]G | x8 | %18
 [EG]F x3 =BcG | x8 | x3 TG G2 x G | G2 x6 | x8 | x8 | x =BcG x4 | x8 | x4 G2 F2 | D8 || %28
[M:4/4] [ce]2 dc/=B/ c2 dB | Gccc x4 | G2 c2 c2 c2 | F2 B2 B2 [Be]B | x6 GG | G2 c2 [ca]2 [cf]2 | %34
 x8 | x3 G G2 x2 | x3 G _B2 x B | x8 | x6 G2 | G2 cc c2 c2 | F2 B2 x4 | x8 | B2 [Bd]B B2 d2 | %43
 [Be]2 [Be]2 [Bd]2 x2 | x8 | c2 cc B2 d2 | c2 e2 [Bf]2 [Bf]2 | [Be]2 [Ad]2 BG x c | BG x B cA x2 | %49
 x8 | x8 | x8 | x8 | x6 dd/c/ | x8 | x6 B2 | B=AA[Gc] A[Gd][Gc][GA] | x8 | x8 | x6 dB | x8 | x8 | %62
 x6 cA | [B=d]2 B2 [GB]2 GB | c2 A2 G2 GB | x8 | x6 A2 | x8 | x8 | c2 =Bc G2 x [Bd] | %70
 c2 c2 cA x [Ac] | B2 B2 B2 x g | [Ac]2 [Ac]2 [Gd]=BGc | [Ac]2 [G=B]2 G2 AA | %74
 [A_B]2 [GB]2 [Ac]3 [A_d] | x8 | x8 | x8 | c2 c2 c2 x2 | x8 | B2 B2 B2 x2 | x6 d2 | ec x2 B2 B2 | %83
 [GB]2 A2 B2 c2 | x8 | x8 | x8 | G2- Gc x4 | x8 | c2 cc x4 | x2 d[Bf] x4 | x8 | [Gd]2 Gc x4 | %93
 x6 A2 | x6 ec | [=Ac]2 A2 =B2 c2 | c2 cd/c/ =BBG[F_A] | x8 | x8 | x8 | x6 fe | x8 | c2 cc x4 | %103
 x8 | x8 | x8 |][M:3/4] x2 B4 | x6 | x2 B2 A2 | x2 B4 | x6 | x2 B2 A2 | x6 | c2 B2 [Bd]2 | %114
 B2 [=Ac]4 | x6 | x6 | x6 | x6 | x6 | x6 | x6 | d3 B2 B | x2 A4 | x4 G2- | GF x4 | x6 | x6 | x6 | %129
 x6 | x6 | x6 | x6 | x6 | x6 | x6 | x6 | x4 G2 | G2 F2 cd | =B2 G2 G2 | A2 x4 | x6 | x6 | x6 | %144
 x6 |][M:2/4] x6 | x6 | x6 | x6 | x6 | x6 | x2 B2 _A2 | x3 GB[GB] | x6 | x3 ccG | x6 | x3 ^FGF | %157
 x6 | [=Ad]4 A2 | x6 | x6 | x6 | x6 | x6 | x6 | x3 GBB | x6 | x6 | x6 | x6 | x6 | x6 | x6 | %173
 x2 [GB]2 [^F=A]2 | G2 [^F=A]2 G2 | ^FddccB | [Bd]c x4 | x6 | x2 [GB]2 [^F=A]2 | x6 | x6 | %181
 G2 G2 G=B | x6 | x3 =B2 B | G2 x G2 G | x6 | x6 | x6 | x3 [Ac]c[Ac] | [Bd]2 x g2 g | %190
 [ce]2 x [eg] [ea]2 | x6 | x6 | x6 | x6 | x6 | x6 | x2 B2 Bd | x6 | x6 | x6 | x4 a2 | dd [Be]d e2 | %203
 ec x4 | x4 aa | x6 | x6 | x6 | x6 | x6 | d2 B2 B2 | BG x4 | x6 | x6 | x6 | x6 | x6 | x6 | x6 | %219
 x6 | x2 cB c2 | c2 c2 c2 | x6 | x6 | x6 | x6 | x3 B2 B | x3 c A2 | ABBee_d | x6 | x6 | x6 | %232
 x2 [Gc]4 | x6 | x6 | x6 | x6 | x6 | x2 G2 [G=B]2 | G2 c2 c2 | x6 | x6 | x3 AcA | x6 | x3 GBG | %245
 x6 | x6 | x6 | x6 | x6 | x6 | [ce] [=Bd]2 x3 | x6 | x6 | x6 | G2 G2 G2 | G2 G2 x2 | x4 fa | x6 | %259
 x3 G2 [EG] | x6 | x6 | x6 | x3 cAc | x6 | x6 | x6 | [Fc]2 c2 c2 | x4 bb/a/ | x6 | x4 a2 | %271
 [=Bd]2 x [Bd]c[ce] | A2 x4 | x6 |] %274
V:6
 CB,A,G, F,D,G,G,, | C,CA,_B, E,E/>D/ EC | FDGG, C,CA,_B, | E,3 E DC=B,C | G,2 z =B, CB, z B, | %5
 C_B,A,G, F,E,B,E, | B,8- | B,2 z2 z B,/>D/ C/>E/D/>F/ | E/>G/F/>A/ G/>G,/A,/>C/ B,E,B,B,, | %9
 E,2 z2 z B,/>D/ C/>E/D/>F/ | E/>G/F/>A/ G/>G,/A,/>C/ B,E,B,B,, | E,2 z _D CF,CC, | %12
 F,2 z E =DG,DD, | G,GFF, E,EDD, | C,2- C,C DG,DD, | G,2 z C A,F, z B, | %16
 EE, z E DG,[I:staff -1][EG][I:staff +1]C | =B,G G2- GFEB, | CA, G,2 z G,/>=B,/ =A,/>C/B,/>D/ | %19
 C/>E/D/>F/ E/>E,/F,/>A,/ G,C,G,G,, | C,2 z (C/>B,/) =B,2 z (TF/>E/) | %21
 E2 z (TD/>C/) C2 z (_B,/>A,/) | A,2 z (TG,/>F,/) F,2 z (TE,/>D,/) | D,G,CC, G,2 z2 | %24
 z G,/>=B,/ =A,/>C/B,/>D/ C/>E/D/>F/ E/>E,/F,/>_A,/ | G,C,G,G,, C,2 z (C/>B,/) | %26
 B,2 z (TB,/>A,/) A,4 | G,8 ||[M:4/4] C,C =B,=A,/G,/ CC,B,G, | CC/D/ EC GG,/=A,/ =B,G, | %30
 C/=B,/C/D/ E/D/E/C/ FF,/G,/ _A,/G,/A,/F,/ | _B,/A,/B,/C/ D/C/D/B,/ E/D/E/F/ G/F/G/E/ | %32
 A/B/A/G/ F/G/A/F/ G/A/G/F/ E/F/E/D/ | C/D/C/_B,/ A,/B,/A,/G,/ F,/E,/F,/G,/ A,/G,/A,/F,/ | %34
 G,=B,CF, G,F,G,G,, | C,2 z C =B,G, z B, | CC, z C D_B, z D | E/F/E/D/ C/D/E/F/ G/F/G/A/ G/F/E/D/ | %38
 C/=B,/C/D/ E/D/E/F/ GG,B,G, | C/_B,/C/D/ C/B,/A,/G,/ F,/E,/F,/G,/ A,/G,/A,/F,/ | %40
 B,/A,/B,/C/ B,/A,/G,/F,/ E,/D,/E,/F,/ G,/F,/G,/E,/ | A,G,F,E, B,2 z B, | G,E,B,E DB,FB | %43
 GEG,E, B,/=A,/B,/C/ D/C/D/B,/ | E/D/E/F/ G/F/G/A/ BB/A/ G/F/G/E/ | AA, z A, B,B,, z B, | %46
 CC, z C DD, z D | EB,FB, GE z A, | G,E, z G, A,F, z F | DB,CA, B,A,B,B,, | %50
 E,/D,/E,/F,/ G,/F,/G,/A,/ B,/A,/B,/C/ D/C/D/E/ | FF,/G,/ A,/G,/A,/B,/ C/B,/C/D/ E/D/E/F/ | %52
 GG,/=A,/ B,/A,/B,/C/ D/C/D/=E/ ^F/E/F/D/ | GG,/=A,/ B,/A,/B,/G,/ D/_E/D/C/ B,/C/B,/A,/ | %54
 G,/^F,/G,/=A,/ B,/A,/B,/G,/ C/B,/C/D/ E/D/E/C/ | F/E/F/G/ F/E/D/C/ B,/=A,/B,/C/ D/C/D/B,/ | %56
 C/B,/C/D/ E/D/E/C/ DB,EC | DCDD, G,D G2- | G2 ^F2 GB,ED | C=A,DD, G,DB,G, | CG,=E,C, F,F_DA, | %61
 B,G,CC, F,F_DA, | B,G,CC, F,CA,F, | B,F=DB, E,_ECG, | A,F,B,B,, E,ECG, | A,F,B,B,, E,EAC | %66
 DFGG, CEFF, | B,DEG, A,CA,F, | G,2 G,2 G,2 z G, | E,C,G,C =B,G, z G, | E,C,G,C A,F, z F, | %71
 D,B,,F,B, G,E, z C | FA/G/ F/E/D/C/ =B,G,CA | FDGG, C2 z F | _D_B,EE, A,2 z D | G,B,CC, F,FB,_D | %76
 _EG,A,C _DFG,B, | C2 C2 C2 z C | A,/F,/G,/A,/ B,/C/D/=E/ F2 z2 | B,2 B,2 B,2 z B, | %80
 G,/E,/F,/G,/ A,/B,/C/D/ E2 z G, | A,CA,F, B,DB,G, | CEFE DCB,D | EE,F,F GG,E,C, | F,A,B,D EGAC | %85
 DFGB, CEFA, | B,G,CC, F,A,B,B,, | E,2 z E DFGG, | C/=B,/C/D/ E/D/E/F/ G/F/G/A/ G/F/E/D/ | %89
 E/F/E/D/ C/D/E/C/ F/E/F/G/ F/G/F/E/ | D/E/D/C/ B,/C/D/B,/ E/D/E/F/ E/F/E/D/ | %91
 C/=B,/C/D/ C/D/E/C/ D/C/D/E/ D/E/D/C/ | =B,/G,/=A,/B,/ C/D/E/F/ GG,/A,/ B,G, | %93
 C/=B,/C/D/ C/_B,/_A,/G,/ F,/E,/F,/G,/ F,/G,/A,/F,/ | B,/A,/B,/C/ D/C/D/B,/ E/F/E/D/ C/D/E/C/ | %95
 F/G/F/E/ D/E/F/D/ G/A/G/F/ E/F/G/E/ | A/G/F/E/ D/C/=B,/=A,/ G,/F,/E,/D,/ C,F, | %97
 G,F,G,G,, C,C=B,G, | CC,G,F, E,C,=B,G, | C/=B,/C/D/ E/D/E/F/ G/F/G/A/ G/F/E/D/ | %100
 C/_B,/C/D/ C/B,/A,/G,/ F,/E,/F,/G,/ A,/G,/A,/F,/ | %101
 B,/A,/B,/C/ B,/A,/G,/F,/ E,/D,/E,/F,/ G,/F,/G,/E,/ | A,/B,/A,/G,/ F,/G,/A,/F,/ G,=B,CF, | %103
 G,F,G,G,, C,E/D/ C/_B,/A,/G,/ | F,2 z ^F, G,=F,E,F, | G,2 G,,2 C,4 |][M:3/4] E,2 E2 D2 | %107
 C3 B,/A,/ G,2 | A,2 B,2 B,,2 | E,2 E2 D2 | C3 B,/A,/ G,2 | A,2 B,2 B,,2 | E,2 ED E2 | D4 G,2 | %114
 C2 F2 F,2 | B,4 D2 | E4 G,2 | A,4 F2 | D2 E2 G,2 | A,2 A4 | B6- | B6- | B3 AGF | E>CF>ED>C | %124
 B,2 D2 E2 | CA, B,2 B,,2 | E,2 E2 D2 | C2 C2 B,2 | A,3 G,/F,/ E,2 | F,2 G,2 G,,2 | C,2 C2 F,2 | %131
 B,2 B,2 E,2 | A,2 A4 | G2 F>=EF>G | =E2 C2 C,2 | F,2 F2 F,2 | B,2 B,,2 B,2 | E2 E,2 G,2 | %138
 A,3 G,A,F, | G,2 =B,2 C2 | A,F, G,2 G,,2 | z6 | z2 E,2 C,2 | A,6 | G,6 |][M:2/4] C2 E2 C2 | %146
 G2 =B,2 G,2 | C2 _B,2 A,2 | G,D G3 F | E2 C2 C,2 | F,2 F2 E2 | D2 B,2 B,,2 | %152
 E,2 z E,/F,/ G,/F,/G,/E,/ | B,2 z D=B,G, | E2 z C/D/ E/D/E/C/ | ^F3 GCE | D3 CB,=A, | B,2 G,2 G2 | %158
 ^F2 D2 F2 | G2 =F2 E2 | D2 ^F,2 D,2 | G,2 G2 G,2 | C2 =E,2 C,2 | F,2 =A,2 F,2 | %164
 B,2 z B,/C/ D/C/D/B,/ | E2 z E,/F,/ G,/F,/G,/E,/ | B,2 =B,3 =A,/B,/ | %167
 CE/D/ C/D/C/_B,/ =A,/B,/A,/G,/ | ^F,3 GCE | D6- | D6- | D6- | D6- | DD(DC)(CB,) | %174
 (B,C)(CB,)(B,=A,) | =A,B(B=A)(AG) | (G=A)(AG)(G^F) | ^F3 GCE | DG, D2 D,2 | G,G(G=F)(FE) | %180
 EEEDDC | =B,2 B,=A,B,G, | CC,_B,B,,_A,F, | G,2 z DGG, | C2 z CEC | F2 z F,A,F, | B,2 z B,DB, | %187
 E2 z E,G,E, | A,2 z F,A,F, | B,2 z G,B,G, | C2 z CC,C | D2 z B,DB, | EE,DD,CC, | B,B,,CC,DD, | %194
 EE,DD,CC, | B,2 z CB,A, | G,GGFFE | EDDCDB, | EE,DD,CC, | B,B,, z2 z2 | EG/F/ E/F/E/D/ C/D/C/B,/ | %201
 A,A/G/ F/G/F/E/ D/E/D/C/ | B,c/A/ G/A/G/F/ E/F/E/D/ | CE/D/ C/D/C/B,/ A,/B,/A,/G,/ | %204
 F,A,/G,/ F,/G,/.F,/E,/ D,/E,/D,/C,/ | B,,2- B,,/B,/C/D/ E/F/G/A/ | B6- | B6 | B6- | B6- | %210
 BB/A/ G/A/G/F/ E/F/E/D/ | C/D/C/B,/ A,/B,/A,/G,/ F,/G,/F,/E,/ | D,/E,/D,/C,/ B,,DEB, | %213
 EA,B,A,B,B,, | E,2 z2 z2 | z6 | E B,2 D/E/ (TE3/2D/4E/4) | F B,2 E/F/ (TF3/2E/4F/4) | GB,FB,EE, | %219
 B,3 B,A,G, | A,2 AGAF | =E2 EDEC | FF,_EE,_DB, | C2 z C=EC | F2 z F,A,F, | B,2 z B,_DB, | %226
 E2 z E,G,E, | A,2 z A,CA, | _D_D,DCCB, | B,BBAAG | G2 B,2 _D2 | C3 =EFE | FB,CB,CC, | F,FF_EE=D | %234
 DDDCC=B, | =B,2 B,3 B, | CC, z2 z2 | z6 | CG, C/D/E D/E/F | EC E/F/G F/G/A | G4 z G, | %241
 CE/D/ C/D/C/_B,/ A,/B,/A,/G,/ | F,2 z F,A,F, | B,D/C/ B,/C/B,/A,/ G,/A,/G,/F,/ | E,2 z EGE | %245
 A,2 z A,F,A, | G,6- | G,6- | G,6- | G,6- | G,2 z2 z2 | C G,2 =B,/C/ (TC3/2B,/4C/4) | %252
 DG, z C/D/ (TD3/2C/4D/4) | EG,DG,CD | =B,/G,/=A,/B,/ C/D/E/F/ G/F/E/D/ | %255
 E/F/G/F/ E/F/D/E/ C/E/D/C/ | =B,/C/D/C/ B,/C/=A,/B,/ G,B, | CC,_B,B,,A,F, | G,2 z G,GG, | %259
 C2 z CEC | F,2 z F,FF, | B,2 z B,,B,B,, | E,2 z B,EG, | A,2 z A,F,A, | G,2 z DEC | FC G2 G,2 | %266
 CG/F/ E/F/E/D/ C/D/C/B,/ | A,/B,/C/B,/ A,/B,/A,/G,/ F,/G,/A,/F,/ | %268
 B,/C/D/C/ B,/C/B,/A,/ G,/A,/G,/F,/ | E,G/F/ E/F/E/D/ C/D/C/B,/ | A,/B,/A,/G,/ F,CFF, | G,2 z FEC | %272
 FF, G,2 G,,2 | !fermata!C,2 z2 z2 |] %274
V:7
 x8 | x8 | x8 | x8 | x8 | x8 | x8 | x8 | x8 | x8 | x8 | x8 | x8 | x8 | x8 | x8 | x8 | x8 | x8 | %19
 x8 | x8 | x8 | x8 | x8 | x8 | x8 | x8 | x8 ||[M:4/4] x8 | x8 | x8 | x8 | x8 | x8 | x8 | x8 | x8 | %37
 x8 | x8 | x8 | x3 B2 x3 | x8 | x8 | x8 | x8 | x8 | x8 | x8 | x8 | x8 | x8 | x8 | x8 | x8 | x8 | %55
 x8 | x8 | x8 | x8 | x8 | x8 | x8 | x8 | x8 | x8 | x8 | x8 | x8 | x8 | x8 | x8 | x8 | x8 | x8 | %74
 x8 | x8 | x8 | x8 | x8 | x8 | x8 | x8 | x8 | x8 | x8 | x8 | x8 | x8 | x8 | x8 | x8 | x8 | x8 | %93
 x8 | x8 | x8 | x8 | x8 | x8 | x8 | x8 | x8 | x8 | x8 | x8 | x8 |][M:3/4] x6 | x6 | x6 | x6 | x6 | %111
 x6 | x6 | x6 | x6 | x6 | x6 | x6 | x6 | x6 | x6 | x6 | x6 | x6 | x6 | x6 | x6 | x6 | x6 | x6 | %130
 x6 | x6 | x6 | x6 | x6 | x6 | x6 | x6 | x6 | x6 | x6 | x6 | x6 | x6 | x6 |][M:2/4] x6 | x6 | x6 | %148
 x6 | x6 | x6 | x6 | x6 | x6 | x6 | x6 | x6 | x6 | x6 | x6 | x6 | x6 | x6 | x6 | x6 | x6 | x6 | %167
 x6 | x6 | x6 | x6 | x6 | x6 | x6 | x6 | x6 | x6 | x6 | x6 | x6 | x6 | x6 | x6 | x6 | x6 | x6 | %186
 x6 | x6 | x6 | x6 | x6 | x6 | x6 | x6 | x6 | x6 | x6 | x6 | x6 | x6 | x6 | x6 | x6 | x g2 x3 | %204
 x6 | x6 | x6 | x6 | x6 | x6 | x6 | x6 | x6 | x6 | x6 | x6 | x6 | x6 | x6 | x6 | x6 | x6 | x6 | %223
 x6 | x6 | x6 | x6 | x6 | x6 | x6 | x6 | x6 | x6 | x6 | x6 | x6 | x6 | x6 | x6 | x6 | x6 | x6 | %242
 x6 | x6 | x6 | x6 | x6 | x6 | x6 | x6 | x6 | x6 | x6 | x6 | x6 | x6 | x6 | x6 | x6 | x6 | x6 | %261
 x6 | x6 | x6 | x6 | x6 | x6 | x6 | x6 | x6 | x6 | x6 | x6 | x6 |] %274

